; Concrete 3D Printer G-code
; Generated by Concrete Assistant
; Date: 2025-10-31 10:13:50
; 
; Printer: WASP/COBOD Compatible
; Layer Height: 15.0mm
; Nozzle Diameter: 30.0mm
; Print Speed: 100.0mm/s
; Extrusion Width: 34.5mm
;
; Model Dimensions:
; X: 900.0mm
; Y: 899.8mm
; Z: 1000.0mm

G21 ; Set units to millimeters
G90 ; Absolute positioning
M82 ; Absolute extrusion mode
G28 ; Home all axes
G92 E0 ; Reset extruder position
M106 S0 ; Pump OFF (M106 controls concrete pump)

; Move to start position
G0 Z10 F200.0
G0 X0 Y0 F200.0


; Layer 1/67 at Z=0.00mm
G0 Z0.000 F200.0
G0 X334.720 Y132.525 F200.0
M106 S0 ; Pump OFF
M106 S255 ; Pump ON
G1 X328.876 Y146.425 F100.0
G1 X322.456 Y160.069 F100.0
G1 X315.470 Y173.431 F100.0
G1 X307.931 Y186.490 F100.0
G1 X299.852 Y199.221 F100.0
G1 X291.246 Y211.603 F100.0
G1 X282.130 Y223.613 F100.0
G1 X272.518 Y235.231 F100.0
G1 X262.429 Y246.437 F100.0
G1 X251.879 Y257.210 F100.0
G1 X240.887 Y267.532 F100.0
G1 X229.473 Y277.385 F100.0
G1 X217.656 Y286.751 F100.0
G1 X205.457 Y295.614 F100.0
G1 X192.898 Y303.958 F100.0
G1 X180.000 Y311.769 F100.0
G1 X166.787 Y319.033 F100.0
G1 X153.281 Y325.738 F100.0
G1 X139.506 Y331.871 F100.0
G1 X125.486 Y337.422 F100.0
G1 X111.246 Y342.380 F100.0
G1 X96.811 Y346.739 F100.0
G1 X82.206 Y350.488 F100.0
G1 X67.457 Y353.623 F100.0
G1 X52.590 Y356.138 F100.0
G1 X37.630 Y358.028 F100.0
G1 X22.605 Y359.290 F100.0
G1 X7.539 Y359.921 F100.0
G1 X-7.539 Y359.921 F100.0
G1 X-22.605 Y359.290 F100.0
G1 X-37.630 Y358.028 F100.0
G1 X-52.590 Y356.138 F100.0
G1 X-67.457 Y353.623 F100.0
G1 X-82.206 Y350.488 F100.0
G1 X-96.811 Y346.739 F100.0
G1 X-111.246 Y342.380 F100.0
G1 X-125.486 Y337.422 F100.0
G1 X-139.506 Y331.871 F100.0
G1 X-153.281 Y325.738 F100.0
G1 X-166.787 Y319.033 F100.0
G1 X-180.000 Y311.769 F100.0
G1 X-192.898 Y303.958 F100.0
G1 X-205.457 Y295.614 F100.0
G1 X-217.656 Y286.751 F100.0
G1 X-229.473 Y277.385 F100.0
G1 X-240.887 Y267.532 F100.0
G1 X-251.879 Y257.210 F100.0
G1 X-262.429 Y246.437 F100.0
G1 X-272.518 Y235.231 F100.0
G1 X-282.130 Y223.613 F100.0
G1 X-291.246 Y211.603 F100.0
G1 X-299.852 Y199.221 F100.0
G1 X-307.931 Y186.490 F100.0
G1 X-315.470 Y173.431 F100.0
G1 X-322.456 Y160.069 F100.0
G1 X-328.876 Y146.425 F100.0
G1 X-334.720 Y132.525 F100.0
G1 X-339.975 Y118.392 F100.0
G1 X-344.635 Y104.051 F100.0
G1 X-348.690 Y89.528 F100.0
G1 X-352.133 Y74.848 F100.0
G1 X-354.959 Y60.037 F100.0
G1 X-357.161 Y45.120 F100.0
G1 X-358.737 Y30.124 F100.0
G1 X-359.684 Y15.075 F100.0
G1 X-360.000 Y0.000 F100.0
G1 X-359.684 Y-15.075 F100.0
G1 X-358.737 Y-30.124 F100.0
G1 X-357.161 Y-45.120 F100.0
G1 X-354.959 Y-60.037 F100.0
G1 X-352.133 Y-74.848 F100.0
G1 X-348.690 Y-89.528 F100.0
G1 X-344.635 Y-104.051 F100.0
G1 X-339.975 Y-118.392 F100.0
G1 X-334.720 Y-132.525 F100.0
G1 X-328.876 Y-146.425 F100.0
G1 X-322.456 Y-160.069 F100.0
G1 X-315.470 Y-173.431 F100.0
G1 X-307.931 Y-186.490 F100.0
G1 X-299.852 Y-199.221 F100.0
G1 X-291.246 Y-211.603 F100.0
G1 X-282.130 Y-223.613 F100.0
G1 X-272.518 Y-235.231 F100.0
G1 X-262.429 Y-246.437 F100.0
G1 X-251.879 Y-257.210 F100.0
G1 X-240.887 Y-267.532 F100.0
G1 X-229.473 Y-277.385 F100.0
G1 X-217.656 Y-286.751 F100.0
G1 X-205.457 Y-295.614 F100.0
G1 X-192.898 Y-303.958 F100.0
G1 X-180.000 Y-311.769 F100.0
G1 X-166.787 Y-319.033 F100.0
G1 X-153.281 Y-325.738 F100.0
G1 X-139.506 Y-331.871 F100.0
G1 X-125.486 Y-337.422 F100.0
G1 X-111.246 Y-342.380 F100.0
G1 X-96.811 Y-346.739 F100.0
G1 X-82.206 Y-350.488 F100.0
G1 X-67.457 Y-353.623 F100.0
G1 X-52.590 Y-356.138 F100.0
G1 X-37.630 Y-358.028 F100.0
G1 X-22.605 Y-359.290 F100.0
G1 X-7.539 Y-359.921 F100.0
G1 X7.539 Y-359.921 F100.0
G1 X22.605 Y-359.290 F100.0
G1 X37.630 Y-358.028 F100.0
G1 X52.590 Y-356.138 F100.0
G1 X67.457 Y-353.623 F100.0
G1 X82.206 Y-350.488 F100.0
G1 X96.811 Y-346.739 F100.0
G1 X111.246 Y-342.380 F100.0
G1 X125.486 Y-337.422 F100.0
G1 X139.506 Y-331.871 F100.0
G1 X153.281 Y-325.738 F100.0
G1 X166.787 Y-319.033 F100.0
G1 X180.000 Y-311.769 F100.0
G1 X192.898 Y-303.958 F100.0
G1 X205.457 Y-295.614 F100.0
G1 X217.656 Y-286.751 F100.0
G1 X229.473 Y-277.385 F100.0
G1 X240.887 Y-267.532 F100.0
G1 X251.879 Y-257.210 F100.0
G1 X262.429 Y-246.437 F100.0
G1 X272.518 Y-235.231 F100.0
G1 X282.130 Y-223.613 F100.0
G1 X291.246 Y-211.603 F100.0
G1 X299.852 Y-199.221 F100.0
G1 X307.931 Y-186.490 F100.0
G1 X315.470 Y-173.431 F100.0
G1 X322.456 Y-160.069 F100.0
G1 X328.876 Y-146.425 F100.0
G1 X334.720 Y-132.525 F100.0
G1 X339.975 Y-118.392 F100.0
G1 X344.635 Y-104.051 F100.0
G1 X348.690 Y-89.528 F100.0
G1 X352.133 Y-74.848 F100.0
G1 X354.959 Y-60.037 F100.0
G1 X357.161 Y-45.120 F100.0
G1 X358.737 Y-30.124 F100.0
G1 X359.684 Y-15.075 F100.0
G1 X360.000 Y0.000 F100.0
G1 X359.684 Y15.075 F100.0
G1 X358.737 Y30.124 F100.0
G1 X357.161 Y45.120 F100.0
G1 X354.959 Y60.037 F100.0
G1 X352.133 Y74.848 F100.0
G1 X348.690 Y89.528 F100.0
G1 X344.635 Y104.051 F100.0
G1 X339.975 Y118.392 F100.0
G1 X334.720 Y132.525 F100.0
M106 S0 ; Pump OFF
G0 X-225.000 Y389.711 F200.0
M106 S0 ; Pump OFF
M106 S255 ; Pump ON
G1 X-241.122 Y379.948 F100.0
G1 X-256.821 Y369.517 F100.0
G1 X-272.070 Y358.438 F100.0
G1 X-286.841 Y346.731 F100.0
G1 X-301.109 Y334.415 F100.0
G1 X-314.849 Y321.513 F100.0
G1 X-328.036 Y308.046 F100.0
G1 X-340.648 Y294.039 F100.0
G1 X-352.662 Y279.517 F100.0
G1 X-364.058 Y264.503 F100.0
G1 X-374.815 Y249.026 F100.0
G1 X-384.914 Y233.112 F100.0
G1 X-394.338 Y216.789 F100.0
G1 X-403.070 Y200.086 F100.0
G1 X-411.095 Y183.031 F100.0
G1 X-418.399 Y165.656 F100.0
G1 X-424.969 Y147.990 F100.0
G1 X-430.794 Y130.064 F100.0
G1 X-435.862 Y111.910 F100.0
G1 X-440.166 Y93.560 F100.0
G1 X-443.698 Y75.046 F100.0
G1 X-446.452 Y56.400 F100.0
G1 X-448.422 Y37.655 F100.0
G1 X-449.605 Y18.844 F100.0
G1 X-450.000 Y0.000 F100.0
G1 X-449.605 Y-18.844 F100.0
G1 X-448.422 Y-37.655 F100.0
G1 X-446.452 Y-56.400 F100.0
G1 X-443.698 Y-75.046 F100.0
G1 X-440.166 Y-93.560 F100.0
G1 X-435.862 Y-111.910 F100.0
G1 X-430.794 Y-130.064 F100.0
G1 X-424.969 Y-147.990 F100.0
G1 X-418.399 Y-165.656 F100.0
G1 X-411.095 Y-183.031 F100.0
G1 X-403.070 Y-200.086 F100.0
G1 X-394.338 Y-216.789 F100.0
G1 X-384.914 Y-233.112 F100.0
G1 X-374.815 Y-249.026 F100.0
G1 X-364.058 Y-264.503 F100.0
G1 X-352.662 Y-279.517 F100.0
G1 X-340.648 Y-294.039 F100.0
G1 X-328.036 Y-308.046 F100.0
G1 X-314.849 Y-321.513 F100.0
G1 X-301.109 Y-334.415 F100.0
G1 X-286.841 Y-346.731 F100.0
G1 X-272.070 Y-358.438 F100.0
G1 X-256.821 Y-369.517 F100.0
G1 X-241.122 Y-379.948 F100.0
G1 X-225.000 Y-389.711 F100.0
G1 X-208.483 Y-398.792 F100.0
G1 X-191.601 Y-407.172 F100.0
G1 X-174.382 Y-414.838 F100.0
G1 X-156.857 Y-421.777 F100.0
G1 X-139.058 Y-427.975 F100.0
G1 X-121.014 Y-433.423 F100.0
G1 X-102.758 Y-438.111 F100.0
G1 X-84.322 Y-442.029 F100.0
G1 X-65.737 Y-445.173 F100.0
G1 X-47.038 Y-447.535 F100.0
G1 X-28.256 Y-449.112 F100.0
G1 X-9.424 Y-449.901 F100.0
G1 X9.424 Y-449.901 F100.0
G1 X28.256 Y-449.112 F100.0
G1 X47.038 Y-447.535 F100.0
G1 X65.737 Y-445.173 F100.0
G1 X84.322 Y-442.029 F100.0
G1 X102.758 Y-438.111 F100.0
G1 X121.014 Y-433.423 F100.0
G1 X139.058 Y-427.975 F100.0
G1 X156.857 Y-421.777 F100.0
G1 X174.382 Y-414.838 F100.0
G1 X191.601 Y-407.172 F100.0
G1 X208.483 Y-398.792 F100.0
G1 X225.000 Y-389.711 F100.0
G1 X241.122 Y-379.948 F100.0
G1 X256.821 Y-369.517 F100.0
G1 X272.070 Y-358.438 F100.0
G1 X286.841 Y-346.731 F100.0
G1 X301.109 Y-334.415 F100.0
G1 X314.849 Y-321.513 F100.0
G1 X328.036 Y-308.046 F100.0
G1 X340.648 Y-294.039 F100.0
G1 X352.662 Y-279.517 F100.0
G1 X364.058 Y-264.503 F100.0
G1 X374.815 Y-249.026 F100.0
G1 X384.914 Y-233.112 F100.0
G1 X394.338 Y-216.789 F100.0
G1 X403.070 Y-200.086 F100.0
G1 X411.095 Y-183.031 F100.0
G1 X418.399 Y-165.656 F100.0
G1 X424.969 Y-147.990 F100.0
G1 X430.794 Y-130.064 F100.0
G1 X435.862 Y-111.910 F100.0
G1 X440.166 Y-93.560 F100.0
G1 X443.698 Y-75.046 F100.0
G1 X446.452 Y-56.400 F100.0
G1 X448.422 Y-37.655 F100.0
G1 X449.605 Y-18.844 F100.0
G1 X450.000 Y0.000 F100.0
G1 X449.605 Y18.844 F100.0
G1 X448.422 Y37.655 F100.0
G1 X446.452 Y56.400 F100.0
G1 X443.698 Y75.046 F100.0
G1 X440.166 Y93.560 F100.0
G1 X435.862 Y111.910 F100.0
G1 X430.794 Y130.064 F100.0
G1 X424.969 Y147.990 F100.0
G1 X418.399 Y165.656 F100.0
G1 X411.095 Y183.031 F100.0
G1 X403.070 Y200.086 F100.0
G1 X394.338 Y216.789 F100.0
G1 X384.914 Y233.112 F100.0
G1 X374.815 Y249.026 F100.0
G1 X364.058 Y264.503 F100.0
G1 X352.662 Y279.517 F100.0
G1 X340.648 Y294.039 F100.0
G1 X328.036 Y308.046 F100.0
G1 X314.849 Y321.513 F100.0
G1 X301.109 Y334.415 F100.0
G1 X286.841 Y346.731 F100.0
G1 X272.070 Y358.438 F100.0
G1 X256.821 Y369.517 F100.0
G1 X241.122 Y379.948 F100.0
G1 X225.000 Y389.711 F100.0
G1 X208.483 Y398.792 F100.0
G1 X191.601 Y407.172 F100.0
G1 X174.382 Y414.838 F100.0
G1 X156.857 Y421.777 F100.0
G1 X139.058 Y427.975 F100.0
G1 X121.014 Y433.423 F100.0
G1 X102.758 Y438.111 F100.0
G1 X84.322 Y442.029 F100.0
G1 X65.737 Y445.173 F100.0
G1 X47.038 Y447.535 F100.0
G1 X28.256 Y449.112 F100.0
G1 X9.424 Y449.901 F100.0
G1 X-9.424 Y449.901 F100.0
G1 X-28.256 Y449.112 F100.0
G1 X-47.038 Y447.535 F100.0
G1 X-65.737 Y445.173 F100.0
G1 X-84.322 Y442.029 F100.0
G1 X-102.758 Y438.111 F100.0
G1 X-121.014 Y433.423 F100.0
G1 X-139.058 Y427.975 F100.0
G1 X-156.857 Y421.777 F100.0
G1 X-174.382 Y414.838 F100.0
G1 X-191.601 Y407.172 F100.0
G1 X-208.483 Y398.792 F100.0
G1 X-225.000 Y389.711 F100.0
M106 S0 ; Pump OFF

; Layer 2/67 at Z=15.00mm
G0 Z15.000 F200.0
G0 X-120.740 Y-433.493 F200.0
M106 S0 ; Pump OFF
M106 S255 ; Pump ON
G1 X-102.758 Y-438.111 F100.0
G1 X-102.481 Y-438.170 F100.0
G1 X-84.322 Y-442.029 F100.0
G1 X-84.043 Y-442.076 F100.0
G1 X-65.737 Y-445.173 F100.0
G1 X-65.457 Y-445.208 F100.0
G1 X-47.038 Y-447.535 F100.0
G1 X-46.756 Y-447.559 F100.0
G1 X-28.256 Y-449.112 F100.0
G1 X-27.973 Y-449.124 F100.0
G1 X-9.424 Y-449.901 F100.0
G1 X-9.141 Y-449.901 F100.0
G1 X9.424 Y-449.901 F100.0
G1 X9.707 Y-449.889 F100.0
G1 X28.256 Y-449.112 F100.0
G1 X28.537 Y-449.088 F100.0
G1 X47.038 Y-447.535 F100.0
G1 X47.318 Y-447.500 F100.0
G1 X65.737 Y-445.173 F100.0
G1 X66.016 Y-445.126 F100.0
G1 X84.322 Y-442.029 F100.0
G1 X84.598 Y-441.970 F100.0
G1 X102.758 Y-438.111 F100.0
G1 X103.032 Y-438.041 F100.0
G1 X121.014 Y-433.423 F100.0
G1 X121.285 Y-433.341 F100.0
G1 X139.058 Y-427.975 F100.0
G1 X139.325 Y-427.882 F100.0
G1 X156.857 Y-421.777 F100.0
G1 X157.120 Y-421.673 F100.0
G1 X174.382 Y-414.838 F100.0
G1 X174.640 Y-414.723 F100.0
G1 X191.601 Y-407.172 F100.0
G1 X191.854 Y-407.046 F100.0
G1 X208.483 Y-398.792 F100.0
G1 X208.731 Y-398.656 F100.0
G1 X225.000 Y-389.711 F100.0
G1 X225.242 Y-389.565 F100.0
G1 X241.122 Y-379.948 F100.0
G1 X241.357 Y-379.792 F100.0
G1 X256.821 Y-369.517 F100.0
G1 X257.050 Y-369.351 F100.0
G1 X272.070 Y-358.438 F100.0
G1 X272.292 Y-358.262 F100.0
G1 X286.841 Y-346.731 F100.0
G1 X287.055 Y-346.546 F100.0
G1 X301.109 Y-334.415 F100.0
G1 X301.315 Y-334.221 F100.0
G1 X314.849 Y-321.513 F100.0
G1 X327.838 Y-308.248 F100.0
G1 X328.036 Y-308.046 F100.0
G1 X340.459 Y-294.249 F100.0
G1 X340.648 Y-294.039 F100.0
G1 X352.482 Y-279.735 F100.0
G1 X352.662 Y-279.517 F100.0
G1 X363.887 Y-264.728 F100.0
G1 X364.058 Y-264.503 F100.0
G1 X374.654 Y-249.258 F100.0
G1 X374.815 Y-249.026 F100.0
G1 X384.763 Y-233.351 F100.0
G1 X384.914 Y-233.112 F100.0
G1 X394.197 Y-217.034 F100.0
G1 X394.338 Y-216.789 F100.0
G1 X402.939 Y-200.337 F100.0
G1 X403.070 Y-200.086 F100.0
G1 X410.975 Y-183.287 F100.0
G1 X411.095 Y-183.031 F100.0
G1 X418.289 Y-165.917 F100.0
G1 X418.399 Y-165.656 F100.0
G1 X424.870 Y-148.255 F100.0
G1 X424.969 Y-147.990 F100.0
G1 X430.707 Y-130.333 F100.0
G1 X430.794 Y-130.064 F100.0
G1 X435.786 Y-112.182 F100.0
G1 X435.862 Y-111.910 F100.0
G1 X440.101 Y-93.836 F100.0
G1 X440.166 Y-93.560 F100.0
G1 X443.645 Y-75.324 F100.0
G1 X443.698 Y-75.046 F100.0
G1 X446.411 Y-56.680 F100.0
G1 X446.452 Y-56.400 F100.0
G1 X448.392 Y-37.936 F100.0
G1 X448.422 Y-37.655 F100.0
G1 X449.587 Y-19.126 F100.0
G1 X449.605 Y-18.844 F100.0
G1 X449.994 Y-0.283 F100.0
G1 X450.000 Y-0.000 F100.0
G1 X449.611 Y18.561 F100.0
G1 X449.605 Y18.844 F100.0
G1 X448.440 Y37.373 F100.0
G1 X448.422 Y37.655 F100.0
G1 X446.482 Y56.119 F100.0
G1 X446.452 Y56.400 F100.0
G1 X443.739 Y74.766 F100.0
G1 X443.698 Y75.046 F100.0
G1 X440.219 Y93.283 F100.0
G1 X440.166 Y93.560 F100.0
G1 X435.927 Y111.635 F100.0
G1 X435.862 Y111.910 F100.0
G1 X430.870 Y129.792 F100.0
G1 X430.794 Y130.064 F100.0
G1 X425.056 Y147.721 F100.0
G1 X424.969 Y147.990 F100.0
G1 X418.498 Y165.391 F100.0
G1 X418.399 Y165.656 F100.0
G1 X411.205 Y182.770 F100.0
G1 X411.095 Y183.031 F100.0
G1 X403.190 Y199.830 F100.0
G1 X403.070 Y200.086 F100.0
G1 X394.469 Y216.538 F100.0
G1 X394.338 Y216.789 F100.0
G1 X385.055 Y232.867 F100.0
G1 X384.914 Y233.112 F100.0
G1 X374.966 Y248.787 F100.0
G1 X374.815 Y249.026 F100.0
G1 X364.219 Y264.271 F100.0
G1 X364.058 Y264.503 F100.0
G1 X352.833 Y279.292 F100.0
G1 X352.662 Y279.517 F100.0
G1 X340.828 Y293.821 F100.0
G1 X340.648 Y294.039 F100.0
G1 X328.225 Y307.836 F100.0
G1 X328.036 Y308.046 F100.0
G1 X315.047 Y321.311 F100.0
G1 X314.849 Y321.513 F100.0
G1 X314.643 Y321.707 F100.0
G1 X301.109 Y334.415 F100.0
G1 X300.895 Y334.600 F100.0
G1 X286.841 Y346.731 F100.0
G1 X286.619 Y346.907 F100.0
G1 X272.070 Y358.438 F100.0
G1 X271.841 Y358.604 F100.0
G1 X256.821 Y369.517 F100.0
G1 X256.586 Y369.673 F100.0
G1 X241.122 Y379.948 F100.0
G1 X240.880 Y380.094 F100.0
G1 X225.000 Y389.711 F100.0
G1 X224.752 Y389.847 F100.0
G1 X208.483 Y398.792 F100.0
G1 X208.230 Y398.918 F100.0
G1 X191.601 Y407.172 F100.0
G1 X191.343 Y407.287 F100.0
G1 X174.382 Y414.838 F100.0
G1 X174.119 Y414.942 F100.0
G1 X156.857 Y421.777 F100.0
G1 X156.590 Y421.870 F100.0
G1 X139.058 Y427.975 F100.0
G1 X138.787 Y428.057 F100.0
G1 X121.014 Y433.423 F100.0
G1 X120.740 Y433.493 F100.0
G1 X102.758 Y438.111 F100.0
G1 X102.481 Y438.170 F100.0
G1 X84.322 Y442.029 F100.0
G1 X84.043 Y442.076 F100.0
G1 X65.737 Y445.173 F100.0
G1 X65.457 Y445.208 F100.0
G1 X47.038 Y447.535 F100.0
G1 X46.756 Y447.559 F100.0
G1 X28.256 Y449.112 F100.0
G1 X27.973 Y449.124 F100.0
G1 X9.424 Y449.901 F100.0
G1 X9.141 Y449.901 F100.0
G1 X-9.424 Y449.901 F100.0
G1 X-9.707 Y449.889 F100.0
G1 X-28.256 Y449.112 F100.0
G1 X-28.537 Y449.088 F100.0
G1 X-47.038 Y447.535 F100.0
G1 X-47.318 Y447.500 F100.0
G1 X-65.737 Y445.173 F100.0
G1 X-66.016 Y445.126 F100.0
G1 X-84.322 Y442.029 F100.0
G1 X-84.598 Y441.970 F100.0
G1 X-102.758 Y438.111 F100.0
G1 X-103.032 Y438.041 F100.0
G1 X-121.014 Y433.423 F100.0
G1 X-121.285 Y433.341 F100.0
G1 X-139.058 Y427.975 F100.0
G1 X-139.325 Y427.882 F100.0
G1 X-156.857 Y421.777 F100.0
G1 X-157.120 Y421.673 F100.0
G1 X-174.382 Y414.838 F100.0
G1 X-174.640 Y414.723 F100.0
G1 X-191.601 Y407.172 F100.0
G1 X-191.854 Y407.046 F100.0
G1 X-208.483 Y398.792 F100.0
G1 X-208.731 Y398.656 F100.0
G1 X-225.000 Y389.711 F100.0
G1 X-225.242 Y389.565 F100.0
G1 X-241.122 Y379.948 F100.0
G1 X-241.357 Y379.792 F100.0
G1 X-256.821 Y369.517 F100.0
G1 X-257.050 Y369.351 F100.0
G1 X-272.070 Y358.438 F100.0
G1 X-272.292 Y358.262 F100.0
G1 X-286.841 Y346.731 F100.0
G1 X-287.055 Y346.546 F100.0
G1 X-301.109 Y334.415 F100.0
G1 X-301.315 Y334.221 F100.0
G1 X-314.849 Y321.513 F100.0
G1 X-327.838 Y308.248 F100.0
G1 X-328.036 Y308.046 F100.0
G1 X-340.459 Y294.249 F100.0
G1 X-340.648 Y294.039 F100.0
G1 X-352.482 Y279.735 F100.0
G1 X-352.662 Y279.517 F100.0
G1 X-363.887 Y264.728 F100.0
G1 X-364.058 Y264.503 F100.0
G1 X-374.654 Y249.258 F100.0
G1 X-374.815 Y249.026 F100.0
G1 X-384.763 Y233.351 F100.0
G1 X-384.914 Y233.112 F100.0
G1 X-394.197 Y217.034 F100.0
G1 X-394.338 Y216.789 F100.0
G1 X-402.939 Y200.337 F100.0
G1 X-403.070 Y200.086 F100.0
G1 X-410.975 Y183.287 F100.0
G1 X-411.095 Y183.031 F100.0
G1 X-418.289 Y165.917 F100.0
G1 X-418.399 Y165.656 F100.0
G1 X-424.870 Y148.255 F100.0
G1 X-424.969 Y147.990 F100.0
G1 X-430.707 Y130.333 F100.0
G1 X-430.794 Y130.064 F100.0
G1 X-435.786 Y112.182 F100.0
G1 X-435.862 Y111.910 F100.0
G1 X-440.101 Y93.836 F100.0
G1 X-440.166 Y93.560 F100.0
G1 X-443.645 Y75.324 F100.0
G1 X-443.698 Y75.046 F100.0
G1 X-446.411 Y56.680 F100.0
